X:1
T:Brno, 77.76 D
T:Brno, 77.76 D
T:Alfred Holzworth, 1921
T:Public Domain Courtesy of the Cyber Hymnal™
C:Alfred Holzworth, 1921
Z:Public Domain
Z:Courtesy of the Cyber Hymnal™
%%score ( 1 2 ) ( 3 4 )
L:1/8
Q:1/4=105
M:4/4
K:Bb
V:1 treble 
V:2 treble 
V:3 bass 
V:4 bass 
V:1
 [B,D][CE] | (FG) (FG) [DF]2 [DB]2 | [Fd]6 [Fd][^Fc] | [GB]2 ([^FA][GB]) ([Ac][GB]) ([=FA][EG]) | %4
 ([EG]4 [DF]2) [FA][FB] | [Fc]3 [Fc] [FB]2 [Fc]2 | ([Fd]4 [DB]2) [Ec][DB] | [CA]6 [CF]2 | %8
 [=EG]2 F4 FF | (FG) (AB) [Fc]2 [Fe]2 | ([Ge]2 [Fd]4) [Fd][Fd] | [^Fd]3 [Fc] [GB]2 [=Ec]2 | %12
 [Fc]6 [Fd][Fe] | [Ff]3 [Fd] (Bc) (Bc) | (B4 e2) [Fd][Ec] | [DB]6 [Fd]2 | [Ec]2 [DB]6 |] %17
V:2
 x2 | D2 D2 x4 | x8 | x8 | x8 | x8 | x8 | x8 | x2 F4 FF | F2 F2 x4 | x8 | x8 | x8 | x4 _A2 A2 | %14
 G6 x2 | x8 | x8 |] %17
V:3
 [B,,F,][B,,F,] | [B,,B,]2 [B,,B,]2 (F,G,) (F,G,) | [B,,F,]6 [B,,B,][D,B,] | %3
 [E,B,]2 [E,B,]2 [E,B,]2 [E,B,]2 | [B,,B,]6 F,[F,G,] | [F,A,]3 [E,A,] [D,B,]2 [C,A,]2 | %6
 (B,4 F,2) [A,,F,][B,,F,] | [C,F,]6 [C,A,]2 | [C,B,]2 [F,A,]4 [F,A,][F,A,] | %9
 (A,B,) (CD) [F,A,]2 [F,A,]2 | [B,,B,]6 [B,,B,][B,,B,] | [D,A,]3 [D,A,] [G,B,]2 [G,B,]2 | %12
 [F,A,]6 B,[B,C] | [B,D]3 B, [B,,D]2 [D,B,]2 | (E4 B,2) [E,B,][E,G,] | F,6 [F,B,]2 | %16
 [F,A,]2 [B,,B,]6 |] %17
V:4
 x2 | x4 B,,2 B,,2 | x8 | x8 | x6 F, x | x8 | B,,6 x2 | x8 | x8 | F,2 F,2 x4 | x8 | x8 | x6 B, x | %13
 x3 B, x4 | E,6 x2 | F,6 x2 | x8 |] %17

